X: 22339
T: La Varsovienne
R: mazurka
M: 3/4
K: Gmajor
|:D>G|B>^A B>G D>G|B>^A B>G D>G|B2 d2 (3BdB|A2- A>F D>F|
A>^G A>F D>F|A>^G A>F (3DEF|A>d (3BdB A2|1 G2- G>B:|2 G2- G>d||
|:d>c|B>B d2 G2|A2- A>c c>B|A>A d2 F2|G2- G>d d>c|
[1 B>B d2 g2|f2- f>e e>d|d>c E2 c2|B2- B>d:|
[2 B2 d2 g2|f2- f>g f>e|d>^c e>d E>F|G4||

